X:1
T:Spetisbury, 10.10.10.10
T:Spetisbury, 10.10.10.10
T:William Knapp, 1738
T:Public Domain Courtesy of the Cyber Hymnal™
C:William Knapp, 1738
Z:Public Domain
Z:Courtesy of the Cyber Hymnal™
%%score ( 1 2 ) ( 3 4 )
L:1/8
Q:1/4=115
M:3/4
K:G
V:1 treble 
V:2 treble 
V:3 bass 
V:4 bass 
V:1
 [B,G]2 | [DB]2 [Ec]2 [Dd]2 | [EG]4 D2 | [CE]2 [B,G]2 [DF]2 | [DG]4 (d>c) | [DB]2 [EB]2 [EG]2 | %6
 [EA]4 (F>G) | [DA]2 (GF) (ED) | D4 [Fd]2 | [Gd]2 [Gd]2 [Ge]2 | (d2 B2) [Dd]2 | [DG]3 [DF] [^CG]2 | %12
 [DA]4 [FA]2 | [GB]2 c2 [Dd]2 | D4 [CF]2 | G3 z A [DF]2 | [DG]4 |] %17
V:2
 x2 | x6 | x4 D2 | x6 | x4 D2 | x6 | x4 D2 | x2 D2 ^C2 | D4 x2 | x6 | G4 x2 | x6 | x6 | %13
 x2 (FE) x2 | D4 x2 | B,2 E2 x3 | x4 |] %17
V:3
 [G,D]2 | [G,B,]2 [G,A,]2 [F,A,]2 | [E,B,]4 [B,,G,]2 | [C,G,]2 [D,D]2 [D,A,]2 | [G,,B,]4 [F,A,]2 | %5
 G,2 [E,G,]2 [D,B,]2 | [^C,A,]4 [D,A,]2 | [F,,A,]2 (B,A,) [A,,G,]2 | [D,F,]4 [D,A,]2 | %9
 [G,B,]2 [G,B,]2 B,2 | (B,2 D2) [F,A,]2 | [E,B,]3 [E,A,] [E,G,]2 | [D,F,]4 [D,D]2 | %13
 [G,,D]2 [A,,C]2 (B,G,) | (G,2 F,2) [D,A,]2 | G,2 z [D,A,]2 x2 | [G,,B,]4 |] %17
V:4
 x2 | x6 | x6 | x6 | x6 | G,2 x4 | x6 | x2 G,,2 x2 | x6 | x4 (E,>F,) | G,4 x2 | x6 | x6 | x4 B,,2 | %14
 D,4 x2 | E,3 (C2 C,) x | x4 |] %17

